X:1
T:Title
%%score { ( 1 3 4 ) | ( 2 5 ) }
L:1/8
Q:1/4=100
M:4/4
K:D
V:1 treble nm="Grand Piano"
V:3 treble 
V:4 treble 
V:2 bass 
V:5 bass 
V:1
 [FA]>[=F^G] [^FB]>[FA] F>E D>F | [B,E]2 [B,G]2 [DB]2 z2 | [CB]>[CA] [Ec]>[GB] [FA]2 [EG]2 | %3
w: E.~S.~Lorenz * * * * * * *|||
 F6[K:bass] z2[K:treble] | F>E F>[EG] [FA]2 [=F^G]>[^FA] | z4 [Bd]2 z2 | [^Ge]3 [GB] [Gc]2 [DEB]2 | %7
w: ||||
 [CEA]6 z2 | [A,DF]>[A,CE] [A,DF]>[A,FA] [Fd]2 [Fc]>[FB] | [Gc]4 [GA]4 | e>e c>B A2 z z/ A,/ | %11
w: ||||
 [DF]6[K:bass] z2[K:treble] | F>E F>[EG] [FA]2 [=F^G]>[^FA] | %13
w: ||
[M:9/8] B>AB- B/[Ac]/ [Gd]2- [Gd][^Gc]>[GB] | z3 z3 e3 |[M:3/4] [Fd]6 |] %16
w: |||
V:2
 [D,D]>[D,D] [D,D]>[D,D] [D,A,D]>[D,G,C] [D,F,]>[D,A,D] | [G,,G,]2 [G,,G,]2 [G,,G,]2 z2 | %2
 [A,,G,]>[A,,E,] [A,,A,]>[A,,A,] [A,,A,]2 [A,,A,]2 | A,2 z2 z4 | %4
 [D,A,D]>[D,A,C] [D,A,D]>[D,A,] [D,D]2 [D,D]>[D,D] | %5
 [G,DG]>[G,DF] [G,DG]>[G,D] .[G,D]2 [G,^A,G]>[G,B,G] | [E,B,]3 [E,E] [E,E]2 E,2 | A,,6 z2 | %8
 D,>D, D,>D, [D,A,]2 [D,A,]>[D,A,] | [E,A,]2 A,,>A,, E,2 A,,2 | %10
 [A,CG]>[A,CG] [A,EG]>[A,DG] [A,CG]2[K:bass] [A,,A,]>A,, | D,>D, A,,>A,, D,2 [D,F,]>[D,G,C] | %12
 [D,A,D]>[D,A,C] [D,A,D]>[D,A,] [D,D]2 [D,D]>[D,D] | %13
[M:9/8][K:treble] [G,DG]>[G,DF][G,DG]- [G,DG]/[G,C]/[K:bass] [G,B,]2- [G,B,][E,E]>[E,D] | %14
 [A,DF]>D,F,- F,/B,/[K:treble] A,2 [CG]2- [CG]/-<[A,,A,CG]/ |[M:3/4][K:bass] [D,A,]6 |] %16
V:3
 x8 | x8 | x8 | z[K:bass] F, z F, D,2 D>[K:treble]E | x8 | B>A B>[Ac] z B, c>d | x8 | x8 | x8 | %9
 z2 A,>A, C2 C2 | z4 z2 [CB]2 | A,>[K:bass]A, A,>A, A,2 D>[K:treble]E | x8 |[M:9/8] x9 | %14
 d>DF- F/B/ A2 z z z/4 [Gc]3/4 |[M:3/4] x6 |] %16
V:4
 x8 | x8 | x8 | z2[K:bass] A,4 z2[K:treble] | x8 | x8 | x8 | x8 | x8 | x8 | x8 | %11
 x3/2[K:bass] x6[K:treble] x/ | x8 |[M:9/8] x9 | x9 |[M:3/4] x6 |] %16
V:5
 x8 | x8 | x8 | [D,D-]4 D2 [D,F,]>[D,G,C] | x8 | x8 | x8 | x8 | x8 | x8 | x6[K:bass] x2 | x8 | x8 | %13
[M:9/8][K:treble] x4[K:bass] x5 | z3 z3[K:treble] A,2- A,/4 z/4 z/ |[M:3/4][K:bass] x6 |] %16

